X:148
T:Waltz,A. JGi.148
M:3/8
L:1/8
Q:3/8=60
S:Joshua Gibbons MS,1823,Tealby,Lincs.
R:waltz
O:Tealby,Lincolnshire
Z:VMP/R.Greig, 2009
K:C
G|G/>F/ EG|c2d/e/|fdf|e/f/e/d/ A|G/>F/ EG|c2d/e/|fdB|c2:|
|:e/f/|dd d/e/|dBG|g2 e/f/|dd d/e/|ceg|fdB|c2:|
|:d/e/|dd d/e/|ddg|fac’|c’b d/e/|cc c/d/|BB B/d/|dcF|G2:|

